X: 8634
T: Crooked Stovepipe, The
R: reel
M: 4/4
K: Gmajor
D2|:G2 B2 Bc dB|G2 B2 Bc dB|G2 B2 e2 B2|d2 c2 c3A|
F2 A2 AB cA|F2 A2 AB cd|e2 d2 e2 f2|1 G,2 [B2g2] [B2g2] D2:|2 G,2 [B2g2] [B2g2] a2||
|:b4 b2 a2|g3 g g2 f2|e2 e2 f2 g2|a4 a2 b2|
c'4 c'2 a2|f3 f f2 e2|d2 ^d2e2 f2|g2 ^g2 a2 ^a2|
b4 b2 a2|g3 g g2 f2|e2 e2 f2 g2|a4 a2 b2||
c'4 c'2 a2|f3 f f2 e2|d2 ^d2e2 f2|1 G,2 [B2g2] [B2g2] a2:|2 G,2 [B2g2] [B2g2] z||

